Adwaita++-Dark/actions/22/timeline-overwrite.svg

<svg fill="none" height="22" viewBox="0 0 22 22" width="22" xmlns="http://www.w3.org/2000/svg">
  <path d="m3 13h16v5c0 .5523-.4477 1-1 1h-14c-.55229 0-1-.4477-1-1z" fill="#e6ddff"/>
  <path d="m6 10.5c0-.2761.22386-.5.5-.5h9c.2761 0 .5.2239.5.5v5c0 .2761-.2239.5-.5.5h-9c-.27614 0-.5-.2239-.5-.5z" fill="#1c71d8"/>
  <path d="m6.00003 3h9.99997v.49883.05226c.001.09751-.0388.19391-.125.27883l-4 3.905c-.1719.17332-.5234.26166-.875.26188-.3515.00022-.7031-.08766-.875-.26076l-3.99997-3.89988c-.08625-.08481-.12631-.18116-.125-.27867v-.05226z" fill="#e6ddff"/>
</svg>

<svg xmlns="http://www.w3.org/2000/svg" fill="none" width="22" height="22" viewBox="0 0 22 22">
 <path fill="#E6DDFF" d="M3 13H19V18C19 18.5523 18.5523 19 18 19H4C3.44771 19 3 18.5523 3 18V13Z"/>
 <path fill="#1C71D8" d="M6 10.5C6 10.2239 6.22386 10 6.5 10H15.5C15.7761 10 16 10.2239 16 10.5V15.5C16 15.7761 15.7761 16 15.5 16H6.5C6.22386 16 6 15.7761 6 15.5V10.5Z"/>
 <path fill="#E6DDFF" d="M6.00003 3H16V3.49883V3.55109C16.001 3.6486 15.9612 3.745 15.875 3.82992L11.875 7.73492C11.7031 7.90824 11.3516 7.99658 11 7.9968C10.6485 7.99702 10.2969 7.90914 10.125 7.73604L6.12503 3.83616C6.03878 3.75135 5.99872 3.655 6.00003 3.55749V3.50523V3Z"/>
</svg>
